!!!COM:	Josquin des Pres
**kern	**kern
*part2	*part1
*staff2	*staff1
*clefGv2	*clefGv2
*k[]	*k[]
*M2/1	*M2/1
=1-	=1-
1E	0e
[1G	.
=2	=2
2G]	1.d
2A	.
1B	.
.	4c
.	4B
=3	=3
1.c	1A
.	1A
4B	.
4A	.
=4	=4
1B	2G
.	2.d
1G	.
.	4B
.	[2e
=5	=5
2.A	4e]
.	4d
.	4c
4G	4B
2E	1c
[2F	.
=6	=6
4F]	1d
4D	.
1G	.
.	1B
4F	.
4E	.
=7	=7
2.F	2A
.	1c
4E	.
4F	.
4E	.
4F	2d
4G	.
=8	=8
4C	2.e
4D	.
4E	.
4F	4d
2G	2B
[2A	[2c
=9	=9
4A]	4c]
4G	4d
2E	2e
2F	2A
2G	2B
=10	=10
2C	2c
1G	1B
2F	2A
=11	=11
0G	0B
==	==
*-	*-
